src/assets/filled/BrifecaseTick.svg

<svg width="24" height="24" viewBox="0 0 24 24"  xmlns="http://www.w3.org/2000/svg">
<path d="M21.09 6.98002C20.24 6.04002 18.83 5.57002 16.76 5.57002H16.52V5.53002C16.52 3.85002 16.52 1.77002 12.76 1.77002H11.24C7.48004 1.77002 7.48004 3.85002 7.48004 5.53002V5.57002H7.24004C5.17004 5.57002 3.75004 6.04002 2.91004 6.98002C1.92004 8.09002 1.95004 9.56002 2.05004 10.57L2.06004 10.64L2.12912 11.446C2.14232 11.5999 2.22586 11.7392 2.35558 11.8232C2.63927 12.0068 2.94109 12.1995 3.23004 12.36C3.37004 12.45 3.52004 12.53 3.67004 12.61C4.80004 13.23 6.01004 13.72 7.25004 14.06C7.28004 16.65 9.40004 18.75 12 18.75C14.62 18.75 16.75 16.62 16.75 14V13.96C18.01 13.58 19.22 13.05 20.35 12.39C20.41 12.36 20.45 12.33 20.5 12.3C20.8947 12.0855 21.304 11.8048 21.6776 11.54C21.7938 11.4575 21.8688 11.329 21.8842 11.1873L21.95 10.58C21.96 10.52 21.96 10.47 21.97 10.4C22.05 9.40002 22.03 8.02002 21.09 6.98002ZM8.91004 5.53002C8.91004 3.83002 8.91004 3.19002 11.24 3.19002H12.76C15.09 3.19002 15.09 3.83002 15.09 5.53002V5.57002H8.91004V5.53002ZM12 17.25C10.35 17.25 8.98004 16.01 8.78004 14.41C8.76004 14.28 8.75004 14.14 8.75004 14C8.75004 12.21 10.21 10.75 12 10.75C13.79 10.75 15.25 12.21 15.25 14C15.25 14.12 15.24 14.23 15.23 14.34V14.35C15.05 15.98 13.67 17.25 12 17.25Z" />
<path d="M11.4299 16.0299C11.2399 16.0299 11.0499 15.9599 10.8999 15.8099L9.90988 14.8299C9.61988 14.5399 9.61988 14.0599 9.90988 13.7699C10.1999 13.4799 10.6799 13.4799 10.9699 13.7699L11.4499 14.2499L13.0599 12.7699C13.3599 12.4899 13.8399 12.5099 14.1199 12.8099C14.3999 13.1099 14.3799 13.5899 14.0799 13.8699L11.9499 15.8399C11.7899 15.9599 11.6099 16.0299 11.4299 16.0299Z" />
<path d="M21.0416 13.7311C21.2903 13.5929 21.6129 13.7931 21.587 14.0765L21.2316 17.9611C21.0216 19.9611 20.2016 22.0011 15.8016 22.0011H8.18156C3.78156 22.0011 2.96156 19.9611 2.76156 17.9711L2.41569 14.2678C2.38884 13.9802 2.69635 13.786 2.95156 13.9211C3.73156 14.3511 4.54156 14.7311 5.37156 15.0311C5.68156 15.1411 5.90156 15.4011 5.99156 15.7211C6.74156 18.3211 9.16156 20.2511 12.0016 20.2511C14.8916 20.2511 17.3316 18.2811 18.0416 15.5811C18.1216 15.2611 18.3416 15.0011 18.6516 14.8811C19.4916 14.5511 20.2916 14.1611 21.0416 13.7311Z" />
</svg>

<?xml version="1.0" encoding="UTF-8"?>
<svg width="24" height="24" viewBox="0 0 24 24" xmlns="http://www.w3.org/2000/svg">
 <path d="m21.09 6.98c-0.85-0.94-2.26-1.41-4.33-1.41h-0.24v-0.04c0-1.68 0-3.76-3.76-3.76h-1.52c-3.76 0-3.76 2.08-3.76 3.76v0.04h-0.24c-2.07 0-3.49 0.47-4.33 1.41-0.99 1.11-0.96 2.58-0.86 3.59l0.01 0.07 0.06908 0.806c0.0132 0.1539 0.09674 0.2932 0.22646 0.3772 0.28369 0.1836 0.58551 0.3763 0.87446 0.5368 0.14 0.09 0.29 0.17 0.44 0.25 1.13 0.62 2.34 1.11 3.58 1.45 0.03 2.59 2.15 4.69 4.75 4.69 2.62 0 4.75-2.13 4.75-4.75v-0.04c1.26-0.38 2.47-0.91 3.6-1.57 0.06-0.03 0.1-0.06 0.15-0.09 0.3947-0.2145 0.804-0.4952 1.1776-0.76 0.1162-0.0825 0.1912-0.211 0.2066-0.3527l0.0658-0.6073c0.01-0.06 0.01-0.11 0.02-0.18 0.08-0.99998 0.06-2.38-0.88-3.42zm-12.18-1.45c0-1.7 0-2.34 2.33-2.34h1.52c2.33 0 2.33 0.64 2.33 2.34v0.04h-6.18v-0.04zm3.09 11.72c-1.65 0-3.02-1.24-3.22-2.84-0.02-0.13-0.03-0.27-0.03-0.41 0-1.79 1.46-3.25 3.25-3.25s3.25 1.46 3.25 3.25c0 0.12-0.01 0.23-0.02 0.34v0.01c-0.18 1.63-1.56 2.9-3.23 2.9z"/>
 <path d="m11.43 16.03c-0.19 0-0.38-0.07-0.53-0.22l-0.99002-0.98c-0.29-0.29-0.29-0.77 0-1.06 0.29002-0.29 0.77002-0.29 1.06 0l0.48 0.48 1.61-1.48c0.3-0.28 0.78-0.26 1.06 0.04s0.26 0.78-0.04 1.06l-2.13 1.97c-0.16 0.12-0.34 0.19-0.52 0.19z"/>
 <path d="m21.042 13.731c0.2487-0.1382 0.5713 0.062 0.5454 0.3454l-0.3554 3.8846c-0.21 2-1.03 4.04-5.43 4.04h-7.62c-4.4 0-5.22-2.04-5.42-4.03l-0.34587-3.7033c-0.02685-0.2876 0.28066-0.4818 0.53587-0.3467 0.78 0.43 1.59 0.81 2.42 1.11 0.31 0.11 0.53 0.37 0.62 0.69 0.75 2.6 3.17 4.53 6.01 4.53 2.89 0 5.33-1.97 6.04-4.67 0.08-0.32 0.3-0.58 0.61-0.7 0.84-0.33 1.64-0.72 2.39-1.15z"/>
</svg>
